X:1
T:Title
%%score { ( 1 2 6 ) | ( 3 4 5 7 ) }
L:1/8
Q:1/4=100
M:4/4
K:G
V:1 treble nm="Grand Piano"
V:2 treble 
V:6 treble 
V:3 bass 
V:4 bass 
V:5 bass 
V:7 bass 
V:1
 z4 E2[K:bass] z2 | z4 F2[K:bass] z2 | z4[K:treble] F2 z2 | z .B3 z4 | .A2 z2 z4 | .G2 z2 G2 z2 | %6
 F A2 G F2 E2 | z .E3[K:bass] E4 | z[K:treble] E2 G B2 G2 | .^D2 z A [Ec]2 A2 | E G2 B e2 d2 | %11
 .c2 z2 [^DB]4 | C4 d2 z2 | .F2 z A c2 B2 | E F2 G A2 G2 | .F2[K:bass] z ^D E4 |] %16
V:2
 E G2 F z[K:bass] ^D, B,2 | F A2 G z[K:bass] ^C, ^C2 | ^C D2 E[K:treble] ^D2- [DG]2 | %3
 .A2 z c [^DB]4 | [CE]4 [CA]2 [^DF]2 | [G,-E]4 [G,B,]2- [G,B,E]2 | x8 | .^D2[K:bass] z F z2 z B,, | %8
 B,4[K:treble] E4 | z .F3 z4 | z4 G4 | E4 z4 | .[F,F]2 z2 E4 | [B,-^D]4 B,4 | x8 | %15
 z .E3[K:bass] z4 |] %16
V:3
 B,6 z2 | ^D8 | F,4- [B,,F,]4 | [C,F,C]2 [G,B,]2 [B,,F,]4 | %4
 z[K:treble] c2 B[K:bass] F,2- [A,,F,]2 | z[K:treble] B2 A[K:bass] E,2 B,,2 | %6
 [B,,F,B,]4 [^D,A,C]2 [B,,G,B,]2 | [F,B,-]4 [E,G,B,]4 | E,4 z4 | [A,-B,]4 A,2- [A,C]2 | %10
 [B,,G,B,]4 B,2- [B,,B,]2 | A,,- [A,,-B]2 [A,,c] B,,4 | z2[K:treble] z c[K:bass] z2 c2 | z .G3 z4 | %14
 [B,,G,B,]4 [C,A,]2 [B,,B,]2 | B,8 |] %16
V:4
 [E,G,]4 .B,,2 E,2 | [F,B,]4 A,2- [F,A,]2 | [A,,A,]4 z4 | x8 | A,,4[K:treble][K:bass] C,2 z2 | %5
 B,,4[K:treble][K:bass] z4 | x8 | A,,2 z2 z4 | G,4- [B,,G,-]2 [E,G,]2 | F,2 z2 C,4 | z4 E,2 z2 | %11
 F,8 | z[K:treble] .A3[K:bass] z4 | z2 F,2 [E,E]4 | z4 E,4 | [A,,^D,]2 B,,2 [E,G,]4 |] %16
V:5
 x8 | z4 .B,,2 z2 | x8 | x8 | x[K:treble] x3[K:bass] x4 | x[K:treble] x3[K:bass] x4 | x8 | x8 | %8
 x8 | x8 | x8 | x8 | z2[K:treble] E,2[K:bass] [C,A,]4 | B,,2 z2 z4 | x8 | x8 |] %16
V:6
 x5[K:bass] x3 | x5[K:bass] x3 | x4[K:treble] x4 | z2 E2 z4 | x8 | x8 | x8 | z2[K:bass] B,,2 z4 | %8
 x[K:treble] x7 | z2 ^D,2 z4 | x8 | x8 | x8 | x8 | x8 | z2[K:bass] F,2 z4 |] %16
V:7
 x8 | x8 | x8 | x8 | x[K:treble] x3[K:bass] x4 | x[K:treble] x3[K:bass] x4 | x8 | x8 | x8 | x8 | %10
 x8 | x8 | A,,4[K:treble][K:bass] z4 | x8 | x8 | x8 |] %16

